gama.ui.shared/icons_svg/light/navigator/folder.user.svg

<svg height="24.75" viewBox="-645.026 -3462.991 24.75 24.75" width="24.75" xmlns="http://www.w3.org/2000/svg"><g fill="none"><path d="m-643.3591-3456.53 10.08-.48 2.40004 3.36 9.12001.72v13.44h-21.60005z" fill="#fff"/><path d="m-641.6511-3456.6156c-.9941 0-1.8.8059-1.8 1.8v13.2c0 .9942.8059 1.8 1.8 1.8h18c.99414 0 1.8-.8058 1.8-1.8v-9.6c0-.9941-.80586-1.8-1.8-1.8h-6.6c-1.3255 0-2.4-1.0744-2.4-2.4 0-.6627-.53724-1.2-1.2-1.2zm0-1.2h7.8c1.3255 0 2.4 1.0746 2.4 2.4 0 .6626.5373 1.2 1.2 1.2h6.6c1.6569 0 3 1.3432 3 3v9.6c0 1.6569-1.3431 3.0001-3 3.0001h-18c-1.65685 0-3-1.3432-3-3.0001v-13.2c0-1.6568 1.34315-3 3-3z" fill="#538737"/><path d="m-630.6505-3445.873 2.2468 1.0212c.58015.2638.9526.8422.9526 1.4794v.4629c0 .8975-.7275 1.625-1.625 1.625h-7.15c-.89746 0-1.625-.7275-1.625-1.625v-.4629c0-.6372.37246-1.2156.9526-1.4794l2.2468-1.0212c-.7605-.595-1.2494-1.521-1.2494-2.5615 0-1.7949 1.4551-3.25 3.25-3.25s3.25 1.4551 3.25 3.25c0 1.0405-.48885 1.9665-1.2494 2.5615zm-3.3258.407-2.65325 1.206c-.34805.158-.57155.5053-.57155.8876v.4629c0 .5385.4365.975.975.975h7.15c.5385 0 .975-.4365.975-.975v-.4629c0-.3823-.2235-.7296-.5715-.8876l-2.6533-1.206c-.4047.181-.8532.2815-1.3252.2815s-.9205-.1005-1.3252-.2815zm1.3252-.3685c1.43595 0 2.6-1.1641 2.6-2.6s-1.16405-2.6-2.6-2.6c-1.4359 0-2.6 1.1641-2.6 2.6s1.1641 2.6 2.6 2.6z" fill="#538736"/><path d="m-630.6505-3445.873 2.2468 1.0212c.58015.2638.9526.8422.9526 1.4794v.4629c0 .8975-.7275 1.625-1.625 1.625h-7.15c-.89746 0-1.625-.7275-1.625-1.625v-.4629c0-.6372.37246-1.2156.9526-1.4794l2.2468-1.0212c-.7605-.595-1.2494-1.521-1.2494-2.5615 0-1.7949 1.4551-3.25 3.25-3.25s3.25 1.4551 3.25 3.25c0 1.0405-.48885 1.9665-1.2494 2.5615zm-3.3258.407-2.65325 1.206c-.34805.158-.57155.5053-.57155.8876v.4629c0 .5385.4365.975.975.975h7.15c.5385 0 .975-.4365.975-.975v-.4629c0-.3823-.2235-.7296-.5715-.8876l-2.6533-1.206c-.4047.181-.8532.2815-1.3252.2815s-.9205-.1005-1.3252-.2815zm1.3252-.3685c1.43595 0 2.6-1.1641 2.6-2.6s-1.16405-2.6-2.6-2.6c-1.4359 0-2.6 1.1641-2.6 2.6s1.1641 2.6 2.6 2.6z" stroke="#538737" stroke-linejoin="round" stroke-width=".25"/></g></svg>

<?xml version="1.0" encoding="UTF-8" standalone="no"?>
<!DOCTYPE svg PUBLIC "-//W3C//DTD SVG 1.1//EN" "http://www.w3.org/Graphics/SVG/1.1/DTD/svg11.dtd">
<svg xmlns:xl="http://www.w3.org/1999/xlink" version="1.1" xmlns="http://www.w3.org/2000/svg" xmlns:dc="http://purl.org/dc/elements/1.1/" viewBox="-645.0261 -3462.9906 24.750035 24.750025" width="24.750035" height="24.750025">
  <defs/>
  <g id="SOURCES" fill-opacity="1" stroke-dasharray="none" fill="none" stroke="none" stroke-opacity="1">
    <title>SOURCES</title>
    <g id="SOURCES_Light">
      <title>Light</title>
      <g id="Graphic_12626"/>
      <g id="Graphic_12625">
        <path d="M -643.3591 -3456.53 L -633.2791 -3457.01 L -630.87906 -3453.65 L -621.75905 -3452.93 L -621.75905 -3439.49 L -643.3591 -3439.49 Z" fill="white"/>
      </g>
      <g id="Graphic_12624">
        <path d="M -641.6511 -3456.6156 C -642.6452 -3456.6156 -643.4511 -3455.8097 -643.4511 -3454.8156 L -643.4511 -3441.6156 C -643.4511 -3440.6214 -642.6452 -3439.8156 -641.6511 -3439.8156 L -623.6511 -3439.8156 C -622.65696 -3439.8156 -621.8511 -3440.6214 -621.8511 -3441.6156 L -621.8511 -3451.2156 C -621.8511 -3452.2097 -622.65696 -3453.0156 -623.6511 -3453.0156 L -630.2511 -3453.0156 C -631.5766 -3453.0156 -632.6511 -3454.09 -632.6511 -3455.4156 C -632.6511 -3456.0783 -633.18834 -3456.6156 -633.8511 -3456.6156 Z M -641.6511 -3457.8156 L -633.8511 -3457.8156 C -632.5256 -3457.8156 -631.4511 -3456.741 -631.4511 -3455.4156 C -631.4511 -3454.753 -630.9138 -3454.2156 -630.2511 -3454.2156 L -623.6511 -3454.2156 C -621.9942 -3454.2156 -620.6511 -3452.8724 -620.6511 -3451.2156 L -620.6511 -3441.6156 C -620.6511 -3439.9587 -621.9942 -3438.6155 -623.6511 -3438.6155 L -641.6511 -3438.6155 C -643.30795 -3438.6155 -644.6511 -3439.9587 -644.6511 -3441.6156 L -644.6511 -3454.8156 C -644.6511 -3456.4724 -643.30795 -3457.8156 -641.6511 -3457.8156 Z" fill="#538737"/>
      </g>
      <g id="Graphic_12627">
        <path d="M -630.6505 -3445.873 L -628.4037 -3444.8518 C -627.82355 -3444.588 -627.4511 -3444.0096 -627.4511 -3443.3724 L -627.4511 -3442.9095 C -627.4511 -3442.012 -628.1786 -3441.2845 -629.0761 -3441.2845 L -636.2261 -3441.2845 C -637.12356 -3441.2845 -637.8511 -3442.012 -637.8511 -3442.9095 L -637.8511 -3443.3724 C -637.8511 -3444.0096 -637.47864 -3444.588 -636.8985 -3444.8518 L -634.6517 -3445.873 C -635.4122 -3446.468 -635.9011 -3447.394 -635.9011 -3448.4345 C -635.9011 -3450.2294 -634.446 -3451.6845 -632.6511 -3451.6845 C -630.8562 -3451.6845 -629.4011 -3450.2294 -629.4011 -3448.4345 C -629.4011 -3447.394 -629.88995 -3446.468 -630.6505 -3445.873 Z M -633.9763 -3445.466 L -636.62955 -3444.26 C -636.9776 -3444.102 -637.2011 -3443.7547 -637.2011 -3443.3724 L -637.2011 -3442.9095 C -637.2011 -3442.371 -636.7646 -3441.9345 -636.2261 -3441.9345 L -629.0761 -3441.9345 C -628.5376 -3441.9345 -628.1011 -3442.371 -628.1011 -3442.9095 L -628.1011 -3443.3724 C -628.1011 -3443.7547 -628.3246 -3444.102 -628.6726 -3444.26 L -631.3259 -3445.466 C -631.7306 -3445.285 -632.1791 -3445.1845 -632.6511 -3445.1845 C -633.1231 -3445.1845 -633.5716 -3445.285 -633.9763 -3445.466 Z M -632.6511 -3445.8345 C -631.21515 -3445.8345 -630.0511 -3446.9986 -630.0511 -3448.4345 C -630.0511 -3449.8704 -631.21515 -3451.0345 -632.6511 -3451.0345 C -634.087 -3451.0345 -635.2511 -3449.8704 -635.2511 -3448.4345 C -635.2511 -3446.9986 -634.087 -3445.8345 -632.6511 -3445.8345 Z" fill="#538736"/>
        <path d="M -630.6505 -3445.873 L -628.4037 -3444.8518 C -627.82355 -3444.588 -627.4511 -3444.0096 -627.4511 -3443.3724 L -627.4511 -3442.9095 C -627.4511 -3442.012 -628.1786 -3441.2845 -629.0761 -3441.2845 L -636.2261 -3441.2845 C -637.12356 -3441.2845 -637.8511 -3442.012 -637.8511 -3442.9095 L -637.8511 -3443.3724 C -637.8511 -3444.0096 -637.47864 -3444.588 -636.8985 -3444.8518 L -634.6517 -3445.873 C -635.4122 -3446.468 -635.9011 -3447.394 -635.9011 -3448.4345 C -635.9011 -3450.2294 -634.446 -3451.6845 -632.6511 -3451.6845 C -630.8562 -3451.6845 -629.4011 -3450.2294 -629.4011 -3448.4345 C -629.4011 -3447.394 -629.88995 -3446.468 -630.6505 -3445.873 Z M -633.9763 -3445.466 L -636.62955 -3444.26 C -636.9776 -3444.102 -637.2011 -3443.7547 -637.2011 -3443.3724 L -637.2011 -3442.9095 C -637.2011 -3442.371 -636.7646 -3441.9345 -636.2261 -3441.9345 L -629.0761 -3441.9345 C -628.5376 -3441.9345 -628.1011 -3442.371 -628.1011 -3442.9095 L -628.1011 -3443.3724 C -628.1011 -3443.7547 -628.3246 -3444.102 -628.6726 -3444.26 L -631.3259 -3445.466 C -631.7306 -3445.285 -632.1791 -3445.1845 -632.6511 -3445.1845 C -633.1231 -3445.1845 -633.5716 -3445.285 -633.9763 -3445.466 Z M -632.6511 -3445.8345 C -631.21515 -3445.8345 -630.0511 -3446.9986 -630.0511 -3448.4345 C -630.0511 -3449.8704 -631.21515 -3451.0345 -632.6511 -3451.0345 C -634.087 -3451.0345 -635.2511 -3449.8704 -635.2511 -3448.4345 C -635.2511 -3446.9986 -634.087 -3445.8345 -632.6511 -3445.8345 Z" stroke="#538737" stroke-linecap="butt" stroke-linejoin="round" stroke-width=".25"/>
      </g>
    </g>
  </g>
</svg>
